X: 13293
T: Flags Of Dublin, The
R: reel
M: 4/4
K: Dmajor
dB|:ADFA B2 dB|ADFA BE E2|ADFA Bcde|1 fece d2 dB:|2 fece d3 A||
d2 df e3 g|f3 e dcBA|dcdf e2 ag|fdBc d3 A|
d2 df e3 g|f3 e dcBA|GBBA Bcde|fece d4||

